assets/img/braze_icons/bell-ringing-01.svg

<svg fill="none" height="24" viewBox="0 0 24 24" width="24" xmlns="http://www.w3.org/2000/svg"><g clip-rule="evenodd" fill="#801ed7" fill-rule="evenodd"><path d="m8.60444 20.3383c.36547-.4141.9974-.4535 1.41146-.088.5295.4673 1.2226.7497 1.9841.7497s1.4546-.2824 1.9841-.7497c.4141-.3655 1.046-.3261 1.4115.088.3654.414.326 1.046-.088 1.4114-.8808.7775-2.0402 1.2503-3.3076 1.2503s-2.42674-.4728-3.30755-1.2503c-.41407-.3654-.45347-.9974-.08801-1.4114z"/><path d="m5.19703 1.80858c.2714.481.10149 1.09094-.37951 1.36234-.94676.53421-1.53442 1.55206-1.52367 2.63909.00546.55226-.43781 1.00437-.99007 1.00983s-1.00438-.4378-1.00984-.99006c-.01794-1.81567.95936-3.50842 2.54075-4.40071.481-.2714 1.09094-.10149 1.36234.37951z"/><path d="m18.799 1.80859c.2714-.481.8813-.65091 1.3623-.37951 1.5814.89229 2.5587 2.58504 2.5408 4.4007-.0055.55226-.4576.99553-1.0098.99007-.5523-.00546-.9956-.45758-.9901-1.00984.0107-1.08702-.5769-2.10487-1.5237-2.63908-.481-.2714-.6509-.88134-.3795-1.36234z"/><path d="m7.05026 3.05025c1.31275-1.31275 3.09324-2.05025 4.94974-2.05025s3.637.7375 4.9498 2.05025c1.3127 1.31276 2.0502 3.09324 2.0502 4.94975 0 2.9127.732 4.8439 1.4994 6.0771l.0119.0191c.3572.5742.6397 1.0281.8301 1.3585.0954.1655.1824.325.2467.4668.0322.0707.0681.1575.0962.2518.0233.0782.0677.2454.0511.449-.0112.1368-.0391.3705-.1733.612-.1341.2415-.3179.3887-.4281.4704-.2503.1857-.5377.2282-.6337.2423l-.0044.0007c-.1474.0218-.3147.0327-.4834.0392-.3353.0131-.7994.0131-1.3766.0131h-13.27175c-.57722 0-1.04136 0-1.37662-.0131-.16875-.0065-.33603-.0174-.48344-.0392l-.00443-.0007c-.09593-.0141-.38336-.0566-.63365-.2423-.11024-.0817-.29397-.2289-.42812-.4704s-.16204-.4752-.17323-.612c-.01665-.2036.02775-.3708.05106-.449.02809-.0943.06403-.1811.09616-.2518.06436-.1418.1513-.3013.24672-.4668.19043-.3304.4729-.7844.83023-1.3586l.01179-.019c.76738-1.2332 1.49939-3.1644 1.49939-6.0771 0-1.85652.73749-3.63699 2.05025-4.94975z"/></g></svg>

<svg width="24" height="24" viewBox="0 0 24 24" fill="none" xmlns="http://www.w3.org/2000/svg">
<path fill-rule="evenodd" clip-rule="evenodd" d="M8.60444 20.3383C8.96991 19.9242 9.60184 19.8848 10.0159 20.2503C10.5454 20.7176 11.2385 21 12 21C12.7615 21 13.4546 20.7176 13.9841 20.2503C14.3982 19.8848 15.0301 19.9242 15.3956 20.3383C15.761 20.7523 15.7216 21.3843 15.3076 21.7497C14.4268 22.5272 13.2674 23 12 23C10.7326 23 9.57326 22.5272 8.69245 21.7497C8.27838 21.3843 8.23898 20.7523 8.60444 20.3383Z" fill="#801ED7"/>
<path fill-rule="evenodd" clip-rule="evenodd" d="M5.19703 1.80858C5.46843 2.28958 5.29852 2.89952 4.81752 3.17092C3.87076 3.70513 3.2831 4.72298 3.29385 5.81001C3.29931 6.36227 2.85604 6.81438 2.30378 6.81984C1.75152 6.8253 1.2994 6.38204 1.29394 5.82978C1.276 4.01411 2.2533 2.32136 3.83469 1.42907C4.31569 1.15767 4.92563 1.32758 5.19703 1.80858Z" fill="#801ED7"/>
<path fill-rule="evenodd" clip-rule="evenodd" d="M18.799 1.80859C19.0704 1.32759 19.6803 1.15768 20.1613 1.42908C21.7427 2.32137 22.72 4.01412 22.7021 5.82978C22.6966 6.38204 22.2445 6.82531 21.6923 6.81985C21.14 6.81439 20.6967 6.36227 20.7022 5.81001C20.7129 4.72299 20.1253 3.70514 19.1785 3.17093C18.6975 2.89953 18.5276 2.28959 18.799 1.80859Z" fill="#801ED7"/>
<path fill-rule="evenodd" clip-rule="evenodd" d="M7.05026 3.05025C8.36301 1.7375 10.1435 1 12 1C13.8565 1 15.637 1.7375 16.9498 3.05025C18.2625 4.36301 19 6.14349 19 8C19 10.9127 19.732 12.8439 20.4994 14.0771L20.5113 14.0962C20.8685 14.6704 21.151 15.1243 21.3414 15.4547C21.4368 15.6202 21.5238 15.7797 21.5881 15.9215C21.6203 15.9922 21.6562 16.079 21.6843 16.1733C21.7076 16.2515 21.752 16.4187 21.7354 16.6223C21.7242 16.7591 21.6963 16.9928 21.5621 17.2343C21.428 17.4758 21.2442 17.623 21.134 17.7047C20.8837 17.8904 20.5963 17.9329 20.5003 17.947L20.4959 17.9477C20.3485 17.9695 20.1812 17.9804 20.0125 17.9869C19.6772 18 19.2131 18 18.6359 18H5.36415C4.78693 18 4.32279 18 3.98753 17.9869C3.81878 17.9804 3.6515 17.9695 3.50409 17.9477L3.49966 17.947C3.40373 17.9329 3.1163 17.8904 2.86601 17.7047C2.75577 17.623 2.57204 17.4758 2.43789 17.2343C2.30374 16.9928 2.27585 16.7591 2.26466 16.6223C2.24801 16.4187 2.29241 16.2515 2.31572 16.1733C2.34381 16.079 2.37975 15.9922 2.41188 15.9215C2.47624 15.7797 2.56318 15.6202 2.6586 15.4547C2.84903 15.1243 3.1315 14.6703 3.48883 14.0961L3.50062 14.0771C4.268 12.8439 5.00001 10.9127 5.00001 8C5.00001 6.14348 5.7375 4.36301 7.05026 3.05025Z" fill="#801ED7"/>
</svg>
